src/assets/images/icons/github-large.svg

<svg width="25" height="24" viewBox="0 0 25 24" fill="none" xmlns="http://www.w3.org/2000/svg">
<path fill-rule="evenodd" clip-rule="evenodd" d="M12.5 0.147461C5.9 0.147461 0.5 5.54746 0.5 12.1475C0.5 17.4475 3.9 21.9475 8.7 23.5475C9.3 23.6475 9.5 23.2475 9.5 22.9475C9.5 22.6475 9.5 21.9475 9.5 20.9475C6.2 21.6475 5.5 19.3475 5.5 19.3475C5 17.9475 4.2 17.5475 4.2 17.5475C3 16.8475 4.2 16.8475 4.2 16.8475C5.4 16.9475 6 18.0475 6 18.0475C7.1 19.8475 8.8 19.3475 9.5 19.0475C9.6 18.2475 9.9 17.7475 10.3 17.4475C7.6 17.1475 4.8 16.1475 4.8 11.5475C4.8 10.2475 5.3 9.14746 6 8.34746C6 7.94746 5.5 6.74746 6.2 5.14746C6.2 5.14746 7.2 4.84746 9.5 6.34746C10.5 6.04746 11.5 5.94746 12.5 5.94746C13.5 5.94746 14.5 6.04746 15.5 6.34746C17.8 4.74746 18.8 5.14746 18.8 5.14746C19.5 6.84746 19 8.04746 18.9 8.34746C19.7 9.14746 20.1 10.2475 20.1 11.5475C20.1 16.1475 17.3 17.1475 14.6 17.4475C15 17.8475 15.4 18.5475 15.4 19.6475C15.4 21.2475 15.4 22.5475 15.4 22.9475C15.4 23.2475 15.6 23.6475 16.2 23.5475C21 21.9475 24.4 17.4475 24.4 12.1475C24.5 5.54746 19.1 0.147461 12.5 0.147461Z" fill="#98A2B3"/>
</svg>

<svg width="25" height="24" fill="none" xmlns="http://www.w3.org/2000/svg"><path fill-rule="evenodd" clip-rule="evenodd" d="M12.5.147c-6.6 0-12 5.4-12 12 0 5.3 3.4 9.8 8.2 11.4.6.1.8-.3.8-.6v-2c-3.3.7-4-1.6-4-1.6-.5-1.4-1.3-1.8-1.3-1.8-1.2-.7 0-.7 0-.7 1.2.1 1.8 1.2 1.8 1.2 1.1 1.8 2.8 1.3 3.5 1 .1-.8.4-1.3.8-1.6-2.7-.3-5.5-1.3-5.5-5.9 0-1.3.5-2.4 1.2-3.2 0-.4-.5-1.6.2-3.2 0 0 1-.3 3.3 1.2 1-.3 2-.4 3-.4s2 .1 3 .4c2.3-1.6 3.3-1.2 3.3-1.2.7 1.7.2 2.9.1 3.2.8.8 1.2 1.9 1.2 3.2 0 4.6-2.8 5.6-5.5 5.9.4.4.8 1.1.8 2.2v3.3c0 .3.2.7.8.6 4.8-1.6 8.2-6.1 8.2-11.4.1-6.6-5.3-12-11.9-12Z" fill="#98A2B3"/></svg>
